X:01
T: East Tennessee Blues
C: Adam Steffey ("Grateful")
S: MandoZine TablEdit Archives
Z: TablEdited by Steve Keating for MandoZine
L: 1/8
Q: 400
M: 4/4
K: C
z2 e2 f2 ^f2 | "First Break""C"ga ge ga ge | ga ge ag ed | "F"cd cA cd cA |
cd cA dc A^F | "C"G^F GA cA cd | eg eg ag ec | "D"de ^fg ag fa | "G"g[gBDG,] [gBD][gBDG,] g2 ge |
"C"ga ge ga ge | ga ge ag ed | "F"cd cA cd cA | cd cA dc A^F | "C"G^F GA cA cd |
eg ea gc' ag | "G"e^d ed =dc AG | "C"c2 cc cc d2 | [gd]e eg ed cA | G2 [cG][cG] [cG]c G2 |
"F"[cG]A Ac AG FD | C2 z[FC] [F2C2] z^F | "C"G^F GA cA cd | eg eg ag e^c | "D"de ^fg ag fa |
"G"g2 z[gB] [g2B2] [g2B2] | "C"de eg ed cA | G2 [cG][cG] [cG][cG] [c2G2] | "F"[cG]A [cA][cA] AG FD |
[F2C2] [FC][FC] [FC]D z^F | "C"G^F GA cA cd | eg ea gc' ag | "G"e^d ed =dc AG | "C"cG F^D FC DE |
C2 e2 f2 ^f2 | "Second break"ga ge ag ea | gc' ag e^d ed | dc AG FG Ac | dc ^d=d c_b ag |
c'a g^d eg d=d | cd eg a_b =bg | _ba gd gd cB | G2 GA _Bd cB | AG _BG AG F^D | EC FE CB, _B,A, |
zC zF zG Ac | dc ^d=d c_b ag | eg e^d eg eg | ea gc' ag e^d | e^d =dc AG FE | C2 CD EG c2 |
de g2 ^d=d cA | cA G2 GA Ac | Ad cA d2 cA | AG FG Ac AF | G2 GA cd ^de | gc' ag e_b ag |
_b=b g_b ag ed | g2 c'2 ze ge | ag e2 e^d =dc | Ac B_B AG BG | c2 _BG Ad (3BcB |
Ac _BA GB AF | G_B GF EC FC | EC DB, CE DC | B,A, G,B, A,G, _B,=B, | CD EG cG FE |
C2 z^f gg ga | "Third Break"ge ga ge ga | ge ge ag ed | cd cA cd cA | cd cA dc A^F |
G^F GA cA cd | eg ea gc' ag | e_b =bg _ba ge | eg ga g2 eg | ga ge ga ge | ga ge ag ed |
cd cA cd cA | cd ^dc =dc A^F | GA cd ^de gc' | ag eg ^f=f e^d | eg ^d=d cG FE | C2 C2 de g2 |
de eg ed cA | G2 [cG][cG] [cG][cG] [c2G2] | [cG]A [c2A2] [cA][cA] F[FD] | [F2C2] [FC][FC] [FC]z D^F |
G^F GA cA cd | eg eg ag ec | de ^fg ag fa | g[gBDG,] [g2B2D2G,2] [g2B2D2] g2 | de eg ed cA |
G2 [cG][cG] [cG][cG] [c2G2] | GA cA dA cA | AG F2 GA c2 | GA G2 A2 c2 | ^d=d cd eg ac' |
gc' ag ag ^d=d | ^dg d=d c2 ga | "Ending"c'g ag eg e^d | eg ^d=d cA dc | AG EG FC EC |
FC ^DE c4 |
